X: 2034
T: The St. KILDA WEDDING
Q: "Reel."
R: reel
B: Kerr "Merry Melodies" v.2 p.7 #34
Z: 2016 John Chambers <jc:trillian.mit.edu>
M: C
L: 1/8
K: A
|:\
A/A/A A2 Acec | B/B/B cA F2EF |\
A/A/A A2 Acec |[1 f/f/f (fe) fefa :|\
[2 f/f/f (ag) fefg :| agab aeea |
fgag Tf2(ed) |\
cefg agfa | eaca TB2(AF) |\
Aaag aeea | fgag Tf2(ed) |\
cefg agfa | ecac TB2(AF) |]

%%sep 1 1 500
%%sep 1 1 500

